X: 31
T:Maid of the Mill (Bampton)
M:6/8
L:1/8
O:England; Oxfordshire; Bampton.
B:Lionel Bacon, A Handbook of Morris Dances
Z:http://www.themorrisring.org/music/handbook-morris-dances
P:A(AB2)4
K:A
P:A
D|A>GA c>BA|B>cd e>cA|E>dc e>de|B>GE E>FG|
A>GA c>BA|B>cd e>cA|E>dc B>AG|A3 A2 ||
P:B
c/d/|e>fe e>ga|d>Bc d>ed|B>cd e>fe|A3 G>FE|
A>GA c>BA|B>cd e>cA|E>dc B>AG|A3 A2 ||

